icons/op-console-light-24.svg

<svg width="24" height="24" viewBox="0 0 24 24" fill="none" xmlns="http://www.w3.org/2000/svg">
<path d="M18.6283 5.00002C14.1935 5.00012 9.75882 4.99977 5.32411 5.00044C4.53582 5.09704 3.98901 5.66388 4.00017 6.41775C4.00029 10.1626 3.99987 13.9074 4.00062 17.6522C4.09383 18.4541 4.65304 19.0113 5.39626 18.9998C9.82051 18.9997 14.2448 19.0001 18.669 18.9994C19.4595 18.9103 20.011 18.3353 19.9998 17.5821C19.9998 13.8374 20.0001 10.0926 19.9993 6.3479C19.9079 5.55669 19.3622 5.00021 18.6283 5.00002V5.00002ZM5.35971 6.22434C9.79122 6.22444 14.2227 6.2241 18.6543 6.22476C18.8377 6.26988 18.7908 6.44016 18.7942 6.58088C18.7941 10.265 18.7945 13.9492 18.7938 17.6333C18.7494 17.8196 18.5818 17.7721 18.4432 17.7755C14.0774 17.7754 9.7116 17.7758 5.34582 17.7751C5.16326 17.7303 5.20926 17.5626 5.20575 17.4225C5.20585 13.7372 5.20552 10.0518 5.20616 6.36651C5.20648 6.29614 5.26245 6.23057 5.33279 6.22612C5.34173 6.22488 5.35071 6.22457 5.35972 6.22434L5.35971 6.22434ZM6.48056 8.22079L9.26355 11.9083L6.53079 15.519L7.46911 16.2878L10.8116 11.9095L7.42005 7.45352L6.48056 8.22079ZM11.2185 16.4H16.9078V15.1757H11.2185V16.4Z" fill="black"/>
</svg>

<svg xmlns="http://www.w3.org/2000/svg" width="24" height="24" viewBox="0 0 24 24"><path d="M18.628 5H5.324c-.788.097-1.335.664-1.324 1.418l.001 11.234c.093.802.652 1.359 1.395 1.348l13.273-.001c.79-.089 1.342-.664 1.331-1.417l-.001-11.234C19.908 5.557 19.362 5 18.628 5ZM5.36 6.224l13.294.001c.184.045.137.215.14.356v11.052c-.045.187-.212.139-.351.143l-13.097-.001c-.183-.045-.137-.212-.14-.353V6.367c0-.071.056-.136.127-.141l.027-.002Zm1.121 1.997 2.783 3.687-2.733 3.611.938.769 3.343-4.379L7.42 7.454l-.939.767Zm4.738 8.179h5.689v-1.224h-5.689V16.4Z"/></svg>
